X: 40135
T: Tie The Ribbons
R: reel
M: 4/4
K: Edorian
d2c|:B2EF GBAG|FDAD BDAD|G2EF GABc|1 dcdf e2dc:|2 dcdf e2ef||
|:g2ef gbag|f2dc dfaf|g2ef gbag|fedf e2ef|
g2ef gbag|f2dc dfaf|bgaf gfed|1 Beed e2ef:|2 Beed e2dc||

